X:88
T:Sont Trois Jeunes Garons
M:6/8
L:1/8
N:Anim
N:La Bourre 4th edition 1929, page 86
Z:Steve Mansfield www.lesession.co.uk June 2012
K:A
E | A3 B A G | A3 B c d | 
(ef) e d c B | A3 A d c | !fermata! B6 | B c d (ef) e |
(d2 c) B3 | A G A (dc) B | !fermata! A6 |]
<end>
<start>
